storage/app/icons/phosphoricons/regular/shirt-folded.svg

<svg xmlns="http://www.w3.org/2000/svg" fill="currentColor" viewBox="0 0 256 256"><path d="M200 40h-20.69l-13.65-13.66A8 8 0 0 0 160 24H96a8 8 0 0 0-5.66 2.34L76.69 40H56a16 16 0 0 0-16 16v152a16 16 0 0 0 16 16h144a16 16 0 0 0 16-16V56a16 16 0 0 0-16-16m-72 25.58L111 40h34.1Zm33.24-21 6.76 6.73V104l-29.43-25.44ZM88 51.31l6.76-6.75 22.67 34L88 104ZM56 56h16v48a15.85 15.85 0 0 0 9.21 14.49A16.1 16.1 0 0 0 88 120a15.9 15.9 0 0 0 10.2-3.73.5.5 0 0 0 .11-.1L120 97.48V208H56Zm144 152h-64V97.48l21.65 18.7a.5.5 0 0 0 .11.1A15.9 15.9 0 0 0 168 120a16.1 16.1 0 0 0 6.83-1.54A15.85 15.85 0 0 0 184 104V56h16Z"/></svg>

<svg xmlns="http://www.w3.org/2000/svg" viewBox="0 0 256 256" fill="currentColor"><path d="M200,40H179.31L165.66,26.34h0A8,8,0,0,0,160,24H96a8,8,0,0,0-5.66,2.34h0L76.69,40H56A16,16,0,0,0,40,56V208a16,16,0,0,0,16,16H200a16,16,0,0,0,16-16V56A16,16,0,0,0,200,40ZM128,65.58,111,40h34.1Zm33.24-21L168,51.31V104L138.57,78.56ZM88,51.31l6.76-6.75,22.67,34L88,104ZM56,56H72v48a15.85,15.85,0,0,0,9.21,14.49A16.1,16.1,0,0,0,88,120a15.89,15.89,0,0,0,10.2-3.73.52.52,0,0,0,.11-.1L120,97.48V208H56ZM200,208H136V97.48l21.65,18.7a.52.52,0,0,0,.11.1A15.89,15.89,0,0,0,168,120a16.1,16.1,0,0,0,6.83-1.54A15.85,15.85,0,0,0,184,104V56h16Z"/></svg>
